X:35
T:The Fairy Dance
S:John Moore's Book 2
Z:Transcribed by Taz Tarry 04/2021
%%VWML: Moore1-4494-p30-1
F:http://www.vwml.org/record/Moore2/4494/p30
N:Last bar of the A part has an extra quaver beat in the ms - the d crotchet should be a d quaver.
M:2/4
L:1/8
K:D
f(f/d/) f(f/d/)|f(f/d/) ee|f(f/d/) (g/f/e/d/)|c/(A/B/c/) d2 d:|
a(a/f/) bb|g(g/e/) a(a/g/)|f(f/d/) (g/f/)(e/d/)|(c/A/)(B/c/) d d :|

